assets/icons/analytics-fill.svg

<svg width="20" height="20" viewBox="0 0 20 20" fill="none" xmlns="http://www.w3.org/2000/svg">
<path d="M18.5654 9.99957C18.5654 5.9623 18.5654 3.94276 17.3113 2.68867C16.0572 1.43457 14.0386 1.43457 10.0004 1.43457C5.96316 1.43457 3.94362 1.43457 2.68953 2.68867C1.43543 3.94276 1.43543 5.9614 1.43543 9.99957C1.43543 14.0368 1.43543 16.0564 2.68953 17.3105C3.94362 18.5646 5.96226 18.5646 10.0004 18.5646C14.0377 18.5646 16.0572 18.5646 17.3113 17.3105C18.5654 16.0564 18.5654 14.0377 18.5654 9.99957Z" fill="currentColor"/>
<path d="M5.83464 15.498V13.4625M10.0013 15.498V12.4447M14.168 15.498V10.4092" stroke="white" stroke-width="1.3" stroke-linecap="round"/>
<path d="M4.67383 8.89453C8.39212 9.72438 11.5815 8.45765 13.8157 5.92143M12.11 5.52001L14.0204 5.28717C14.2472 5.25989 14.4201 5.42478 14.4074 5.65578L14.2993 7.60307" stroke="white" stroke-linecap="round" stroke-linejoin="round"/>
</svg>

<svg xmlns="http://www.w3.org/2000/svg" width="20" height="20" fill="none" viewBox="0 0 20 20"><path fill="currentColor" d="M18.565 10c0-4.038 0-6.057-1.254-7.311s-3.272-1.254-7.31-1.254-6.057 0-7.311 1.254C1.435 3.943 1.435 5.96 1.435 9.999s0 6.057 1.255 7.312 3.272 1.254 7.31 1.254 6.057 0 7.311-1.255 1.254-3.272 1.254-7.31"/><path stroke="#fff" stroke-linecap="round" stroke-width="1.3" d="M5.835 15.498v-2.035M10 15.498v-3.053m4.167 3.053v-5.089"/><path stroke="#fff" stroke-linecap="round" stroke-linejoin="round" d="M4.674 8.895c3.718.83 6.908-.437 9.142-2.974M12.11 5.52l1.91-.233c.227-.027.4.138.387.369L14.3 7.603"/></svg>
